src/img/footer-mail-icon.svg

<svg width="17" height="13" viewBox="0 0 17 13" fill="none" xmlns="http://www.w3.org/2000/svg">
<path d="M2.87943 0.994141H14.0872C14.8577 0.994141 15.4882 1.62415 15.4882 2.39417V10.7943C15.4882 11.5643 14.8577 12.1943 14.0872 12.1943H2.87943C2.10889 12.1943 1.47845 11.5643 1.47845 10.7943V2.39417C1.47845 1.62415 2.10889 0.994141 2.87943 0.994141Z" stroke="white" stroke-width="1.5" stroke-linecap="round" stroke-linejoin="round"/>
<path d="M15.4882 2.39453L8.48331 7.29492L1.47845 2.39453" stroke="white" stroke-width="1.5" stroke-linecap="round" stroke-linejoin="round"/>
</svg>

<svg width="17" height="13" fill="none" xmlns="http://www.w3.org/2000/svg"><path d="M2.88.994h11.207c.77 0 1.401.63 1.401 1.4v8.4c0 .77-.63 1.4-1.4 1.4H2.878c-.77 0-1.4-.63-1.4-1.4v-8.4c0-.77.63-1.4 1.4-1.4z" stroke="#fff" stroke-width="1.5" stroke-linecap="round" stroke-linejoin="round"/><path d="M15.488 2.395l-7.005 4.9-7.005-4.9" stroke="#fff" stroke-width="1.5" stroke-linecap="round" stroke-linejoin="round"/></svg>
